X:1
T:Edelweiss
T:Sound of Music
L:1/8
M:3/4
K:G
V:1 treble nm="Violin" snm="Vln."
V:1
 B4 d2 | a6 | g4 d2 | c6 | B4 B2 | B2 c2 d2 | e6 | d6 | B4 d2 | a6 | g4 d2 | c6 | d4 d2 | %13
w: E- del-|weiss-|E- del-|weiss-|eve- ry-|mor- ning- you-|greet-|me-|small- and-|white-|clean- and-|bright-|you- look-|
 d2 e2 f2 | g6 | g6 | a3 d d2 | f2 e2 d2 | B4 d2 | g6 | e4 g2 | a4 g2 | f6 | d6 | B4 d2 | a6 | %26
w: ha- ppy- to-|meet-|me-|Blo- ssom- of-|snow- may- you-|bloom- and-|grow-|bloom- and-|grow- for-|e-|ver-|E- del-|weiss-|
 g4 d2 | c6 | d4 d2 | d2 e2 f2 | g6 | g6 |] %32
w: E- del-|weiss-|bless- my-|home- land- for-|e-|ver|

